X: 23327
T: Legend Of Lisalway, The
R: jig
M: 6/8
K: Amixolydian
|{Bc} B2A A2E|{A} B2A AGE|{Bc} B2A AGE|DEG Bed|
{Bc} B2A A2E|{A} B2A AGE|DEF G2A|BAG BAG:|
|:AAA cea|fed ~e3|AAA ceA|BGE ~G3|
AAA B/c/de|gab a2b|agd e2g|1 GBd edB:|2 GBd ed=c||

